res/media/img/icon/sn/YouTube.svg

<svg xmlns="http://www.w3.org/2000/svg" xmlns:xlink="http://www.w3.org/1999/xlink" width="512" zoomAndPan="magnify" viewBox="0 0 384 383.999986" height="512" preserveAspectRatio="xMidYMid meet" version="1.0"><path fill="#ffffff" d="M 192 0 C 85.941406 0 0 85.941406 0 192 C 0 298.058594 85.941406 384 192 384 C 298.058594 384 384 298.058594 384 192 C 383.832031 85.941406 297.890625 0 192 0 Z M 302.546875 245.695312 C 300.382812 259.824219 288.082031 270.128906 273.785156 270.128906 L 110.046875 270.128906 C 95.75 270.128906 83.449219 259.824219 81.289062 245.695312 C 79.292969 232.5625 77.296875 214.273438 77.132812 191.832031 C 77.296875 169.390625 79.128906 151.273438 81.289062 137.972656 C 83.449219 123.84375 95.75 113.539062 110.046875 113.539062 L 273.785156 113.539062 C 288.082031 113.539062 300.382812 123.84375 302.546875 137.972656 C 304.539062 151.105469 306.535156 169.390625 306.703125 191.832031 C 306.535156 214.273438 304.539062 232.5625 302.546875 245.695312 Z M 302.546875 245.695312 " fill-opacity="1" fill-rule="nonzero"/><path fill="#ffffff" d="M 167.730469 160.746094 L 167.730469 223.085938 L 225.746094 192 Z M 167.730469 160.746094 " fill-opacity="1" fill-rule="nonzero"/></svg>

<svg xmlns="http://www.w3.org/2000/svg" version="1.0" viewBox="0 0 384 384"><path fill="#fff" d="M192 0C85.941 0 0 85.941 0 192s85.941 192 192 192 192-85.941 192-192C383.832 85.941 297.89 0 192 0zm110.547 245.695c-2.164 14.13-14.465 24.434-28.762 24.434H110.047c-14.297 0-26.598-10.305-28.758-24.434-1.996-13.132-3.992-31.422-4.156-53.863.164-22.441 1.996-40.559 4.156-53.86 2.16-14.128 14.461-24.433 28.758-24.433h163.738c14.297 0 26.598 10.305 28.762 24.434 1.992 13.132 3.988 31.418 4.156 53.859-.168 22.441-2.164 40.73-4.156 53.863zm0 0"/><path fill="#fff" d="M167.73 160.746v62.34L225.746 192zm0 0"/></svg>
